X: 25875
T: Matt Cranitch's Blackwater
R: polka
M: 2/4
K: Dmajor
|:G/|Fd Bd/B/|AF D>E|F/E/D AF|G/A/G/F/ ED/E/|
F/A/d Bd/B/|AF ED/E/|FD A/B/A/F/|ED D3/2:|
|:E/|F/G/A Bc|d2 Ad|f2 ed|fg/f/ eA|
dc/d/ e/f/e/d/|BA FD/E/|FD A/B/A/F/|ED D3/2:|

